src/svg/28/check_circle_device_outline_28.svg

<svg height="28" viewBox="0 0 28 28" width="28" xmlns="http://www.w3.org/2000/svg"><g fill="none" fill-rule="evenodd"><path d="m0 0h28v28h-28z"/><path d="m18 10c4.418278 0 8 3.581722 8 8s-3.581722 8-8 8-8-3.581722-8-8 3.581722-8 8-8zm-5.1277704-8c1.776598 0 2.6475757.16819357 3.5530607.65245221.8261203.44181398 1.4804435 1.0961372 1.9222575 1.92225752.3689881.68994783.5459418 1.33505392.616971 2.36138134.0381309.55096686-.3776049 1.02852491-.9285717 1.06665575-.5509669.03813084-1.0285249-.37760489-1.0666558-.92857175-.0520797-.75251928-.153753-1.12318175-.3853699-1.55626762-.2554144-.47758338-.6242455-.84641446-1.1018289-1.10182884-.5083515-.27186938-1.0034139-.3879059-2.1255406-.4114458l-.483812-.00463281-3.00553639.0014712c-1.28952499.01507234-1.8035325.12272986-2.34929606.41460741-.47758338.25541438-.84641446.62424546-1.10182884 1.10182884-.27186938.50835153-.3879059 1.003414-.41144572 2.12580322l-.00463289.48393162.0014712 12.00515421c.01507234 1.289525.12272986 1.8035325.41460741 2.349296.25541438.4775834.62424546.8464145 1.10182884 1.1018289.50300072.2690077.95829132.3752332 2.01792599.407738.55202506.0169337.98580236.4781659.96886876 1.030191s-.4781658.9858024-1.03019092.9688687c-1.34952379-.0413973-2.10351869-.2173146-2.89980155-.6431713-.82612032-.441814-1.48044354-1.0961372-1.92225752-1.9222575-.43137883-.8066083-.6096529-1.5794601-.64559024-2.9898919l-.00532246-.2907863-.00153951-12.0168417c0-1.77659796.16819357-2.64757573.65245221-3.55306067.44181398-.82612032 1.0961372-1.48044354 1.92225752-1.92225752.80660828-.43137883 1.57946011-.6096529 2.98957691-.64559014l.29071905-.00532244zm5.1277704 10c-3.3137085 0-6 2.6862915-6 6s2.6862915 6 6 6 6-2.6862915 6-6-2.6862915-6-6-6zm3.5363961 3.5636039c.3221825.3221825.3490311.8278621.0805456 1.1806275l-.0805456.0921647-4 4c-.3221825.3221825-.8278621.3490311-1.1806275.0805456l-.0921647-.0805456-1.6-1.6c-.3514719-.3514719-.3514719-.9213203 0-1.2727922.3221825-.3221825.8278621-.3490311 1.1806275-.0805456l.0921647.0805456.9636039.9633961 3.3636039-3.3633961c.3514719-.3514719.9213203-.3514719 1.2727922 0z" fill="currentColor" fill-rule="nonzero"/></g></svg>

<?xml version="1.0" encoding="UTF-8"?>
<svg width="28px" height="28px" viewBox="0 0 28 28" version="1.1" xmlns="http://www.w3.org/2000/svg" xmlns:xlink="http://www.w3.org/1999/xlink">
    <!-- Generator: Sketch 63.1 (92452) - https://sketch.com -->
    <title>check_circle_device_outline_28</title>
    <desc>Created with Sketch.</desc>
    <g id="Page-1" stroke="none" stroke-width="1" fill="none" fill-rule="evenodd">
        <g id="check_circle_device_outline_28">
            <rect x="0" y="0" width="28" height="28"></rect>
            <path d="M18,10 C22.418278,10 26,13.581722 26,18 C26,22.418278 22.418278,26 18,26 C13.581722,26 10,22.418278 10,18 C10,13.581722 13.581722,10 18,10 Z M12.8722296,2 C14.6488276,2 15.5198053,2.16819357 16.4252903,2.65245221 C17.2514106,3.09426619 17.9057338,3.74858941 18.3475478,4.57470973 C18.7165359,5.26465756 18.8934896,5.90976365 18.9645188,6.93609107 C19.0026497,7.48705793 18.5869139,7.96461598 18.0359471,8.00274682 C17.4849802,8.04087766 17.0074222,7.62514193 16.9692913,7.07417507 C16.9172116,6.32165579 16.8155383,5.95099332 16.5839214,5.51790745 C16.328507,5.04032407 15.9596759,4.67149299 15.4820925,4.41607861 C14.973741,4.14420923 14.4786786,4.02817271 13.3565519,4.00463281 L12.8727399,4 L9.86720351,4.0014712 C8.57767852,4.01654354 8.06367101,4.12420106 7.51790745,4.41607861 C7.04032407,4.67149299 6.67149299,5.04032407 6.41607861,5.51790745 C6.14420923,6.02625898 6.02817271,6.52132145 6.00463289,7.64371067 L6,8.12764229 L6.0014712,20.1327965 C6.01654354,21.4223215 6.12420106,21.936329 6.41607861,22.4820925 C6.67149299,22.9596759 7.04032407,23.328507 7.51790745,23.5839214 C8.02090817,23.8529291 8.47619877,23.9591546 9.53583344,23.9916594 C10.0878585,24.0085931 10.5216358,24.4698253 10.5047022,25.0218504 C10.4877686,25.5738755 10.0265364,26.0076528 9.47451128,25.9907191 C8.12498749,25.9493218 7.37099259,25.7734045 6.57470973,25.3475478 C5.74858941,24.9057338 5.09426619,24.2514106 4.65245221,23.4252903 C4.22107338,22.618682 4.04279931,21.8458302 4.00686197,20.4353984 L4.00153951,20.1446121 L4,8.1277704 C4,6.35117244 4.16819357,5.48019467 4.65245221,4.57470973 C5.09426619,3.74858941 5.74858941,3.09426619 6.57470973,2.65245221 C7.38131801,2.22107338 8.15416984,2.04279931 9.56428664,2.00686207 L9.85500569,2.00153963 L12.8722296,2 Z M18,12 C14.6862915,12 12,14.6862915 12,18 C12,21.3137085 14.6862915,24 18,24 C21.3137085,24 24,21.3137085 24,18 C24,14.6862915 21.3137085,12 18,12 Z M21.5363961,15.5636039 C21.8585786,15.8857864 21.8854272,16.391466 21.6169417,16.7442314 L21.5363961,16.8363961 L17.5363961,20.8363961 C17.2142136,21.1585786 16.708534,21.1854272 16.3557686,20.9169417 L16.2636039,20.8363961 L14.6636039,19.2363961 C14.312132,18.8849242 14.312132,18.3150758 14.6636039,17.9636039 C14.9857864,17.6414214 15.491466,17.6145728 15.8442314,17.8830583 L15.9363961,17.9636039 L16.9,18.927 L20.2636039,15.5636039 C20.6150758,15.212132 21.1849242,15.212132 21.5363961,15.5636039 Z" id="↳-Icon-Color" fill="currentColor" fill-rule="nonzero"></path>
        </g>
    </g>
</svg>
